logo/kitty-framed.svg

<svg xmlns="http://www.w3.org/2000/svg" width="1024" height="1024" fill="none"><g filter="url(#a)"><rect width="824" height="824" x="100" y="100" fill="#fff" rx="184"/><rect width="824" height="824" x="100" y="100" fill="url(#b)" rx="184"/></g><path fill="#DDD" d="M681.218 251.015H362.14v513.183h319.078z"/><path fill="#000" d="M346.486 821.466h331.028a22.44 22.44 0 0 0 20.735-13.855 22.4 22.4 0 0 0 1.708-8.588V467.995a22.44 22.44 0 0 0-22.443-22.443H346.486a22.46 22.46 0 0 0-15.87 6.573 22.44 22.44 0 0 0-6.573 15.87v331.028c0 2.947.581 5.866 1.709 8.588a22.43 22.43 0 0 0 12.145 12.146 22.5 22.5 0 0 0 8.589 1.709m177.296-121.819h118.946a13.466 13.466 0 1 1 0 26.931H523.782a13.465 13.465 0 0 1 0-26.931M380.733 554.444a13.469 13.469 0 0 1 9.614-22.644 13.47 13.47 0 0 1 9.418 3.612l84.114 84.07a13.467 13.467 0 0 1 0 19.032l-84.114 84.115a13.467 13.467 0 0 1-19.032-19.032l74.599-74.599z"/><path fill="#C0C81F" fill-rule="evenodd" d="M436.033 403.534c5.976 0 10.756-11.354 10.756-25.952s-4.78-25.952-10.756-25.952c-5.975 0-10.755 11.354-10.755 25.952s4.78 25.952 10.755 25.952" clip-rule="evenodd"/><path fill="#784421" fill-rule="evenodd" d="M744.298 208.945c-14.598-15.409-81.099 3.244-121.648 28.384-31.629-16.219-69.745-25.951-110.295-25.951-41.36 0-79.477 9.732-111.106 25.951-40.549-25.14-107.861-44.604-121.648-28.384-14.598 16.22 10.543 83.532 40.55 120.837-2.433 9.732-4.055 19.464-4.055 30.007 0 32.439 13.786 62.446 37.305 86.776h133.813c-4.055-8.11 1.622-12.976 25.952-12.976 24.33.811 29.196 4.866 25.952 12.976h133.813c23.519-24.33 37.305-55.148 37.305-86.776 0-10.543-1.621-20.275-4.054-30.007 28.384-37.305 52.714-105.428 38.116-120.837M436.122 423.046c-28.385 0-51.903-23.519-51.903-51.903 0-28.385 23.518-51.904 51.903-51.904s51.903 23.519 51.903 51.904c0 28.384-23.518 51.903-51.903 51.903m152.466 0c-28.385 0-51.903-23.519-51.903-51.903 0-28.385 23.518-51.904 51.903-51.904s51.903 23.519 51.903 51.904c0 28.384-22.707 51.903-51.903 51.903" clip-rule="evenodd"/><path fill="#2B1100" fill-rule="evenodd" d="M666.088 419.802c48.659-60.824 148.411-90.02 214.912-47.848-77.855-12.165-148.411 8.109-214.912 47.848" clip-rule="evenodd"/><path fill="#2B1100" fill-rule="evenodd" d="M662.844 405.204c27.574-64.879 109.484-107.051 175.174-84.343-68.934 8.921-124.893 35.684-175.174 84.343m-.811 31.629c50.281-47.849 161.387-64.068 195.449-13.787-68.935-21.897-128.948-12.165-195.449 13.787m-304.121-17.031c-48.659-60.824-148.411-90.02-214.912-47.848 77.855-12.165 148.411 8.109 214.912 47.848" clip-rule="evenodd"/><path fill="#2B1100" fill-rule="evenodd" d="M361.156 405.204c-27.573-64.879-109.483-107.051-175.174-84.343 68.935 8.921 124.893 35.684 175.174 84.343m.811 31.629c-50.281-47.849-161.387-64.068-195.448-13.787 68.934-21.897 128.947-12.165 195.448 13.787" clip-rule="evenodd"/><path fill="#483737" fill-rule="evenodd" d="M297.899 388.984c-20.275 0-37.306 10.543-45.415 26.763h-2.433c-21.897 0-40.55 16.22-40.55 36.494 0 28.385 29.196 43.794 55.958 34.062 16.22 23.519 51.093 25.141 64.069 0 19.463-.811 51.092-4.055 55.958-34.062 3.244-20.274-17.842-36.494-40.55-36.494h-2.433c-6.488-16.22-24.329-26.763-44.604-26.763m428.202 0c20.275 0 37.306 10.543 45.416 26.763h2.433c11.353 0 40.549 16.22 40.549 36.494 0 28.385-29.196 43.794-55.958 34.062-16.22 23.519-51.093 25.141-64.068 0-19.464-.811-51.093-4.055-55.959-34.062-3.244-20.274 29.196-36.494 40.55-36.494h2.433c6.488-16.22 24.33-26.763 44.604-26.763" clip-rule="evenodd"/><path fill="#C0C81F" fill-rule="evenodd" d="M586.784 403.534c5.975 0 10.756-11.354 10.756-25.952s-4.781-25.952-10.756-25.952-10.755 11.354-10.755 25.952 4.78 25.952 10.755 25.952" clip-rule="evenodd"/><defs><linearGradient id="b" x1="512" x2="512" y1="100" y2="924" gradientUnits="userSpaceOnUse"><stop stop-opacity="0"/><stop offset="1" stop-opacity=".2"/></linearGradient><filter id="a" width="868" height="868" x="78" y="89" color-interpolation-filters="sRGB" filterUnits="userSpaceOnUse"><feFlood flood-opacity="0" result="BackgroundImageFix"/><feColorMatrix in="SourceAlpha" values="0 0 0 0 0 0 0 0 0 0 0 0 0 0 0 0 0 0 127 0"/><feOffset dy="11"/><feGaussianBlur stdDeviation="11"/><feColorMatrix values="0 0 0 0 0 0 0 0 0 0 0 0 0 0 0 0 0 0 0.28 0"/><feBlend in2="BackgroundImageFix" result="effect1_dropShadow"/><feBlend in="SourceGraphic" in2="effect1_dropShadow" result="shape"/></filter></defs></svg>

<svg xmlns="http://www.w3.org/2000/svg" width="1024" height="1024" fill="none" viewBox="0 0 1024 1024"><g filter="url(#filter0_d)"><rect width="824" height="824" x="100" y="100" fill="#fff" rx="184"/><rect width="824" height="824" x="100" y="100" fill="url(#paint0_linear)" rx="184"/></g><path fill="#DDD" d="M681.218 251.015H362.14V764.198H681.218V251.015Z"/><path fill="#000" d="M346.486 821.466H677.514C680.462 821.466 683.38 820.885 686.103 819.757C688.826 818.63 691.3 816.977 693.384 814.893C695.468 812.809 697.121 810.334 698.249 807.611C699.377 804.889 699.957 801.97 699.957 799.023V467.995C699.957 465.047 699.377 462.129 698.249 459.406C697.121 456.683 695.468 454.209 693.384 452.125C691.3 450.041 688.826 448.388 686.103 447.26C683.38 446.133 680.462 445.552 677.514 445.552H346.486C343.539 445.552 340.62 446.133 337.897 447.26C335.175 448.388 332.7 450.041 330.616 452.125C328.533 454.209 326.879 456.683 325.752 459.406C324.624 462.129 324.043 465.047 324.043 467.995V799.023C324.043 801.97 324.624 804.889 325.752 807.611C326.879 810.334 328.532 812.809 330.616 814.893C332.7 816.977 335.175 818.63 337.897 819.757C340.62 820.885 343.539 821.466 346.486 821.466V821.466ZM523.782 699.647H642.728C646.3 699.647 649.725 701.066 652.25 703.591C654.775 706.117 656.194 709.542 656.194 713.113C656.194 716.684 654.775 720.109 652.25 722.634C649.725 725.16 646.3 726.578 642.728 726.578H523.782C520.211 726.578 516.786 725.16 514.261 722.634C511.736 720.109 510.317 716.684 510.317 713.113C510.317 709.542 511.736 706.117 514.261 703.591C516.786 701.066 520.211 699.647 523.782 699.647V699.647ZM380.733 554.444C378.355 551.891 377.06 548.515 377.121 545.026C377.183 541.538 378.596 538.209 381.063 535.742C383.53 533.275 386.859 531.862 390.347 531.8C393.836 531.739 397.212 533.034 399.765 535.412L483.879 619.482C486.401 622.007 487.818 625.43 487.818 628.998C487.818 632.566 486.401 635.989 483.879 638.514L399.765 722.629C397.212 725.007 393.836 726.302 390.347 726.24C386.859 726.179 383.53 724.766 381.063 722.298C378.596 719.831 377.183 716.503 377.121 713.015C377.06 709.526 378.355 706.15 380.733 703.597L455.332 628.998L380.733 554.444Z"/><path fill="#C0C81F" fill-rule="evenodd" d="M436.033 403.534C442.009 403.534 446.789 392.18 446.789 377.582C446.789 362.984 442.009 351.63 436.033 351.63C430.058 351.63 425.278 362.984 425.278 377.582C425.278 392.18 430.058 403.534 436.033 403.534Z" clip-rule="evenodd"/><path fill="#784421" fill-rule="evenodd" d="M744.298 208.945C729.7 193.536 663.199 212.189 622.65 237.329C591.021 221.11 552.905 211.378 512.355 211.378C470.995 211.378 432.878 221.11 401.249 237.329C360.7 212.189 293.388 192.725 279.601 208.945C265.003 225.165 290.144 292.477 320.151 329.782C317.718 339.514 316.096 349.246 316.096 359.789C316.096 392.228 329.882 422.235 353.401 446.565H487.214C483.159 438.455 488.836 433.589 513.166 433.589C537.496 434.4 542.362 438.455 539.118 446.565H672.931C696.45 422.235 710.236 391.417 710.236 359.789C710.236 349.246 708.615 339.514 706.182 329.782C734.566 292.477 758.896 224.354 744.298 208.945V208.945ZM436.122 423.046C407.737 423.046 384.219 399.527 384.219 371.143C384.219 342.758 407.737 319.239 436.122 319.239C464.507 319.239 488.025 342.758 488.025 371.143C488.025 399.527 464.507 423.046 436.122 423.046ZM588.588 423.046C560.203 423.046 536.685 399.527 536.685 371.143C536.685 342.758 560.203 319.239 588.588 319.239C616.973 319.239 640.491 342.758 640.491 371.143C640.491 399.527 617.784 423.046 588.588 423.046Z" clip-rule="evenodd"/><path fill="#2B1100" fill-rule="evenodd" d="M666.088 419.802C714.747 358.978 814.499 329.782 881 371.954C803.145 359.789 732.589 380.063 666.088 419.802Z" clip-rule="evenodd"/><path fill="#2B1100" fill-rule="evenodd" d="M662.844 405.204C690.418 340.325 772.328 298.153 838.018 320.861C769.084 329.782 713.125 356.545 662.844 405.204Z" clip-rule="evenodd"/><path fill="#2B1100" fill-rule="evenodd" d="M662.033 436.833C712.314 388.984 823.42 372.765 857.482 423.046C788.547 401.149 728.534 410.881 662.033 436.833Z" clip-rule="evenodd"/><path fill="#2B1100" fill-rule="evenodd" d="M357.912 419.802C309.253 358.978 209.501 329.782 143 371.954C220.855 359.789 291.411 380.063 357.912 419.802Z" clip-rule="evenodd"/><path fill="#2B1100" fill-rule="evenodd" d="M361.156 405.204C333.583 340.325 251.673 298.153 185.982 320.861C254.917 329.782 310.875 356.545 361.156 405.204Z" clip-rule="evenodd"/><path fill="#2B1100" fill-rule="evenodd" d="M361.967 436.833C311.686 388.984 200.58 372.765 166.519 423.046C235.453 401.149 295.466 410.881 361.967 436.833Z" clip-rule="evenodd"/><path fill="#483737" fill-rule="evenodd" d="M297.899 388.984C277.624 388.984 260.593 399.527 252.484 415.747C251.673 415.747 250.862 415.747 250.051 415.747C228.154 415.747 209.501 431.967 209.501 452.241C209.501 480.626 238.697 496.035 265.459 486.303C281.679 509.822 316.552 511.444 329.528 486.303C348.991 485.492 380.62 482.248 385.486 452.241C388.73 431.967 367.644 415.747 344.936 415.747C344.125 415.747 343.314 415.747 342.503 415.747C336.015 399.527 318.174 388.984 297.899 388.984ZM726.101 388.984C746.376 388.984 763.407 399.527 771.517 415.747C772.328 415.747 762.596 415.747 773.95 415.747C785.303 415.747 814.499 431.967 814.499 452.241C814.499 480.626 785.303 496.035 758.541 486.303C742.321 509.822 707.448 511.444 694.473 486.303C675.009 485.492 643.38 482.248 638.514 452.241C635.27 431.967 667.71 415.747 679.064 415.747C690.418 415.747 680.686 415.747 681.497 415.747C687.985 399.527 705.827 388.984 726.101 388.984Z" clip-rule="evenodd"/><path fill="#C0C81F" fill-rule="evenodd" d="M586.784 403.534C592.759 403.534 597.54 392.18 597.54 377.582C597.54 362.984 592.759 351.63 586.784 351.63C580.809 351.63 576.029 362.984 576.029 377.582C576.029 392.18 580.809 403.534 586.784 403.534Z" clip-rule="evenodd"/><defs><filter id="filter0_d" width="868" height="868" x="78" y="89" color-interpolation-filters="sRGB" filterUnits="userSpaceOnUse"><feFlood flood-opacity="0" result="BackgroundImageFix"/><feColorMatrix in="SourceAlpha" type="matrix" values="0 0 0 0 0 0 0 0 0 0 0 0 0 0 0 0 0 0 127 0"/><feOffset dy="11"/><feGaussianBlur stdDeviation="11"/><feColorMatrix type="matrix" values="0 0 0 0 0 0 0 0 0 0 0 0 0 0 0 0 0 0 0.28 0"/><feBlend in2="BackgroundImageFix" mode="normal" result="effect1_dropShadow"/><feBlend in="SourceGraphic" in2="effect1_dropShadow" mode="normal" result="shape"/></filter><linearGradient id="paint0_linear" x1="512" x2="512" y1="100" y2="924" gradientUnits="userSpaceOnUse"><stop stop-opacity="0"/><stop offset="1" stop-opacity=".2"/></linearGradient></defs></svg>
